X:60
T:Hora nutii
O:rumania
C:- Roem -
M:2/4
L:1/8
Q:1/4=109
K:Am
V:1
"Am" A/B/c/d/ ed |ed d/c/B/A/ |A/B/c/d/ ed |ee e2 :| |:
"G" BA AG |ed d/c/B/A/ |BA A/G/^F/G/ |"Am" AA A2 :|
